X: 176
T:Responde mihi / Posuisti in nervo pedem meum
N: Derived from Jos1412-Responde_mihi.krn
C: Josquin des Prez
%%abc-version 2.0
%%abcx-abcm2ps-target-version 5.9.1 (29 Sep 2008)
%%abc-creator hum2abc beta
%%abcx-conversion-date 2019/02/12 16:15:46
%%abc-edited-by Jesse Rodin
%%abc-edited-by Jesse Rodin; Victoria Chang 2011/05/18
%%abcx-initial-encoding-date 2011/05/18/
%%humdrum-veritas 302291683
%%humdrum-veritas-data 757077164
%%linebreak <none>
%%barnumbers 0
L: 1/4
M: 2/1
Q: 1/2=120
%%staves [1 2 3 4]
V: 1 clef=treble
V: 2 clef=treble-8
V: 3 clef=treble-8
V: 4 clef=bass
K: C
[V:1] z8 | 
[V:2] z8 | 
[V:3] E4E2E2 | 
[V:4] z8 | 
[V:1] z8 | 
[V:2] z8 | 
[V:3] G6C2 | 
[V:4] E,4E,2E,2 | 
[V:1] z8 | 
[V:2] z8 | 
[V:3] C4z2G2- | 
[V:4] G,6C,2 | 
[V:1] z8 | 
[V:2] z8 | 
[V:3] G2E2F2G2 | 
[V:4] C,4z2G,2- | 
[V:1] z8 | 
[V:2] z8 | 
[V:3] C2G2A2B2 | 
[V:4] G,2E,2F,2G,2 | 
[V:1] z8 | 
[V:2] z8 | 
[V:3] c4B4 | 
[V:4] C,2C,2D,2E,2 | 
[V:1] z8 | 
[V:2] z8 | 
[V:3] z2A2B2c2- | 
[V:4] F,4E,4 | 
[V:1] z8 | 
[V:2] z8 | 
[V:3] c2d2B2c2- | 
[V:4] z2D,2E,4 | 
[V:1] z8 | 
[V:2] z8 | 
[V:3] cBcAB2E2 | 
[V:4] F,4G,4 | 
[V:1] z8 | 
[V:2] z8 | 
[V:3] z2A2A2A2 | 
[V:4] E,2F,3E,F,D, | 
[V:1] z8 | 
[V:2] z8 | 
[V:3] G2c2B2A2- | 
[V:4] E,2A,,2z2D,2 | 
[V:1] z8 | 
[V:2] z8 | 
[V:3] A2GFE2A2 | 
[V:4] D,2D,2C,2F,2 | 
[V:1] z8 | 
[V:2] z8 | 
[V:3] G2E2F2G2 | 
[V:4] E,2C,2D,2E,2 | 
[V:1] z8 | 
[V:2] z8 | 
[V:3] A2EFGABc | 
[V:4] A,,B,,C,D,E,F,G,E, | 
[V:1] z8 | 
[V:2] z8 | 
[V:3] d2c4B2 | 
[V:4] F,E,D,C,D,4 | 
[V:1] E4E2E2 | 
[V:2] z8 | 
[V:3] c8- | 
[V:4] C,8- | 
[V:1] G6C2 | 
[V:2] e4e2e2 | 
[V:3] c8- | 
[V:4] C,8- | 
[V:1] C4z2G2- | 
[V:2] g6c2 | 
[V:3] c8 | 
[V:4] C,8 | 
[V:1] G2E2F2G2 | 
[V:2] c4z2g2- | 
[V:3] z8 | 
[V:4] z8 | 
[V:1] C2G2A2B2 | 
[V:2] g2e2f2g2 | 
[V:3] z8 | 
[V:4] z8 | 
[V:1] c4B4 | 
[V:2] c2c2d2e2 | 
[V:3] z8 | 
[V:4] z8 | 
[V:1] z2A2B2c2- | 
[V:2] f4e4 | 
[V:3] z8 | 
[V:4] z8 | 
[V:1] c2d2B2c2- | 
[V:2] z2d2e4 | 
[V:3] z8 | 
[V:4] z8 | 
[V:1] cBcAB2E2 | 
[V:2] f4g4 | 
[V:3] z8 | 
[V:4] z8 | 
[V:1] z2A2A2A2 | 
[V:2] e2f3efd | 
[V:3] z8 | 
[V:4] z8 | 
[V:1] G2c2B2A2- | 
[V:2] e2A2z2d2 | 
[V:3] z8 | 
[V:4] z8 | 
[V:1] A2GFE2A2 | 
[V:2] d2d2c2f2 | 
[V:3] z8 | 
[V:4] z8 | 
[V:1] G2E2F2G2 | 
[V:2] e2c2d2e2 | 
[V:3] z8 | 
[V:4] z8 | 
[V:1] A2EFGABc | 
[V:2] ABcdefg2- | 
[V:3] z4G4 | 
[V:4] z8 | 
[V:1] d2c4B2 | 
[V:2] gfe2d4 | 
[V:3] G2G2G2G2 | 
[V:4] z8 | 
[V:1] c8 | 
[V:2] c8 | 
[V:3] A3Bcde2- | 
[V:4] C,4C,2C,2 | 
[V:1] z8 | 
[V:2] z8 | 
[V:3] edcBA2B2- | 
[V:4] C,4D,4 | 
[V:1] G4G2G2 | 
[V:2] z8 | 
[V:3] B2c3BcA | 
[V:4] E,6E,2 | 
[V:1] G2G2A3B | 
[V:2] z4c4 | 
[V:3] B4A4- | 
[V:4] E,4A,,4- | 
[V:1] cde3dcB | 
[V:2] c2c2c4 | 
[V:3] A4z2A2 | 
[V:4] A,,4z4 | 
[V:1] A2B4c2- | 
[V:2] d4e4- | 
[V:3] F2G4A2- | 
[V:4] z8 | 
[V:1] cBcAB4 | 
[V:2] e2e2e4 | 
[V:3] AGA2E2e2- | 
[V:4] A,,4E,2E,2 | 
[V:1] A8 | 
[V:2] A4z2A2 | 
[V:3] ecc2d4 | 
[V:4] F,4D,4 | 
[V:1] G4A4 | 
[V:2] e2e2f4 | 
[V:3] B4z2A2 | 
[V:4] E,4D,4 | 
[V:1] z8 | 
[V:2] d4e4- | 
[V:3] B6B2 | 
[V:4] z4E,4 | 
[V:1] z8 | 
[V:2] e4z4 | 
[V:3] c4A4 | 
[V:4] E,2E,2F,4 | 
[V:1] z8 | 
[V:2] z8 | 
[V:3] B4z2B2 | 
[V:4] D,4E,4 | 
[V:1] z8 | 
[V:2] z8 | 
[V:3] B2B2c4 | 
[V:4] z2E,2E,2E,2 | 
[V:1] A4B4- | 
[V:2] z4d4 | 
[V:3] d4B4- | 
[V:4] F,4G,4 | 
[V:1] B2B2c4 | 
[V:2] e6e2 | 
[V:3] B4z4 | 
[V:4] E,4z4 | 
[V:1] A4B4 | 
[V:2] f4d4 | 
[V:3] z8 | 
[V:4] z8 | 
[V:1] z2B2B2B2 | 
[V:2] e4z2e2 | 
[V:3] z8 | 
[V:4] z8 | 
[V:1] c4d4 | 
[V:2] e2e2f4 | 
[V:3] z8 | 
[V:4] z8 | 
[V:1] B4z4 | 
[V:2] g4e4- | 
[V:3] B6B2 | 
[V:4] E,6E,2 | 
[V:1] G4ccA2- | 
[V:2] e4c4 | 
[V:3] c4A4 | 
[V:4] E,4F,4 | 
[V:1] A2d3cBA | 
[V:2] f2f2d2d2 | 
[V:3] d4B4- | 
[V:4] D,4G,4 | 
[V:1] G4z2G2 | 
[V:2] e4z2e2- | 
[V:3] B4z2B2 | 
[V:4] E,4z2E,2 | 
[V:1] E2F2G4 | 
[V:2] e2c2d2B2 | 
[V:3] c4B4 | 
[V:4] A,4G,4 | 
[V:1] A4G4 | 
[V:2] c2d2e4- | 
[V:3] A4B4 | 
[V:4] F,2F,2E,4 | 
[V:1] z2c2B2A2- | 
[V:2] e2f2g2d2 | 
[V:3] c4d2A2 | 
[V:4] A,4G,2F,2 | 
[V:1] A2G2A2B2- | 
[V:2] e4f4 | 
[V:3] c4d4 | 
[V:4] E,4D,4 | 
[V:1] BAA4^G2 | 
[V:2] e8- | 
[V:3] B8 | 
[V:4] E,8 | 
[V:1] A8 | 
[V:2] e8- | 
[V:3] A8 | 
[V:4] A,,4z2A,,2- | 
[V:1] z8 | 
[V:2] e8 | 
[V:3] z2E4E2 | 
[V:4] A,,2A,,2C,3D, | 
[V:1] z8 | 
[V:2] z8 | 
[V:3] G3AB4 | 
[V:4] E,4z2G,2 | 
[V:1] z8 | 
[V:2] z8 | 
[V:3] z2d2d2c2 | 
[V:4] G,2F,2G,2E,2 | 
[V:1] z8 | 
[V:2] z8 | 
[V:3] d2B2A4 | 
[V:4] D,4z2D,2 | 
[V:1] z8 | 
[V:2] z8 | 
[V:3] z2A2c4 | 
[V:4] F,4F,2F,2 | 
[V:1] z8 | 
[V:2] z8 | 
[V:3] c2c2B2G2 | 
[V:4] E,2C,2D,2B,,2 | 
[V:1] z8 | 
[V:2] A6A2 | 
[V:3] A2F2E2c2- | 
[V:4] A,,8 | 
[V:1] z8 | 
[V:2] A2A2A2A2 | 
[V:3] cBAGAGFE | 
[V:4] z2F,3E,D,C, | 
[V:1] z8 | 
[V:2] A2A2G2G2 | 
[V:3] FEDCD4 | 
[V:4] D,C,B,,A,,B,,4 | 
[V:1] A6A2 | 
[V:2] ABcde2f2 | 
[V:3] E4z2A2- | 
[V:4] A,,3B,,C,2D,2 | 
[V:1] A2A2A2A2 | 
[V:2] e2f4e2- | 
[V:3] ABc3BAG | 
[V:4] A,,2A,3G,F,E, | 
[V:1] A2A2G2G2 | 
[V:2] e2d2e4 | 
[V:3] A4B4 | 
[V:4] F,4E,4 | 
[V:1] A4z2A2 | 
[V:2] z2e2f4 | 
[V:3] A4z4 | 
[V:4] A,,4z4 | 
[V:1] c4c2c2 | 
[V:2] f2f2e2c2 | 
[V:3] z8 | 
[V:4] z8 | 
[V:1] B2G2A2F2 | 
[V:2] d2B2A4 | 
[V:3] z8 | 
[V:4] z8 | 
[V:1] E3FG2C2- | 
[V:2] c3de3f | 
[V:3] z8 | 
[V:4] z8 | 
[V:1] CDEFG2C2 | 
[V:2] g2c2e3f | 
[V:3] z8 | 
[V:4] z8 | 
[V:1] E3FG2C2- | 
[V:2] g2c3def | 
[V:3] z8 | 
[V:4] z8 | 
[V:1] CDEFGABc | 
[V:2] g2cdefg2- | 
[V:3] z8 | 
[V:4] z8 | 
[V:1] d2c4B2 | 
[V:2] g2e2f2g2 | 
[V:3] z8 | 
[V:4] z8 | 
[V:1] c4z2G2 | 
[V:2] c4z2e2 | 
[V:3] z8 | 
[V:4] z8 | 
[V:1] A2F2E2G2 | 
[V:2] f2d2e2e2 | 
[V:3] z8 | 
[V:4] z8 | 
[V:1] A2B2c3B | 
[V:2] f2d2e2AB | 
[V:3] z8 | 
[V:4] z8 | 
[V:1] A2G2F4 | 
[V:2] cde4d2 | 
[V:3] z8 | 
[V:4] z8 | 
[V:1] E8 | 
[V:2] e4z2e2 | 
[V:3] B4B2B2 | 
[V:4] E,4E,4- | 
[V:1] z8 | 
[V:2] e2e2c2d2 | 
[V:3] c4A2B2 | 
[V:4] E,2E,2F,2D,2 | 
[V:1] z4z2B2 | 
[V:2] B2A2A2^G2 | 
[V:3] G2E2F2D2 | 
[V:4] E,2C,2D,2B,,2 | 
[V:1] c4A2c2- | 
[V:2] A2e2e2e2 | 
[V:3] E2A2A2A2 | 
[V:4] A,,4z2A,,2- | 
[V:1] c2BAG2c2 | 
[V:2] e3fg2fe | 
[V:3] c4B2A2- | 
[V:4] A,,B,,C,D,E,2F,2- | 
[V:1] A2B2c4 | 
[V:2] d4e3f | 
[V:3] A2GFEDG2- | 
[V:4] F,2E,D,C,3D, | 
[V:1] B2A4G2- | 
[V:2] g2f2d2e2 | 
[V:3] G2A2B2c2 | 
[V:4] E,2F,2G,2C,2 | 
[V:1] G2^F2G4- | 
[V:2] d8 | 
[V:3] A4G4 | 
[V:4] D,4z4 | 
[V:1] G4z4 | 
[V:2] z8 | 
[V:3] z4B4- | 
[V:4] E,6E,2 | 
[V:1] z8 | 
[V:2] z8 | 
[V:3] B2B2B2B2 | 
[V:4] E,2E,2E,2E,2 | 
[V:1] z8 | 
[V:2] z8 | 
[V:3] B2B2d4 | 
[V:4] G,4G,2D,2 | 
[V:1] z8 | 
[V:2] z4z2e2- | 
[V:3] d2A2A2c2- | 
[V:4] D,2F,4E,2 | 
[V:1] z2B4B2 | 
[V:2] e2e2e2e2 | 
[V:3] c2B2B4- | 
[V:4] E,8- | 
[V:1] B2B2B2B2 | 
[V:2] e2e2g4 | 
[V:3] B8 | 
[V:4] E,8 | 
[V:1] d4d2A2 | 
[V:2] g2d2d2f2- | 
[V:3] z4d4 | 
[V:4] z2G,2G,2F,2 | 
[V:1] A2c4B2 | 
[V:2] f2e2e4 | 
[V:3] d2c2A2e2- | 
[V:4] D,2A,4E,2 | 
[V:1] B4z2d2- | 
[V:2] g6g2 | 
[V:3] e2B2B2B2 | 
[V:4] E,2E,2G,4 | 
[V:1] d2d2c2A2 | 
[V:2] f2d2a4- | 
[V:3] d4A4 | 
[V:4] D,4z4 | 
[V:1] e6e2 | 
[V:2] a2a2e2e2 | 
[V:3] z2A2c4 | 
[V:4] z8 | 
[V:1] B2B2d4 | 
[V:2] g4d4 | 
[V:3] G4z2d2 | 
[V:4] z2G,2G,2G,2 | 
[V:1] A4z4 | 
[V:2] z8 | 
[V:3] d2d2c2A2 | 
[V:4] F,2D,2F,2F,2 | 
[V:1] z4z2d2 | 
[V:2] z2g2g2g2 | 
[V:3] c2c2G4 | 
[V:4] C,4z4 | 
[V:1] d2d2c2A2 | 
[V:2] f2d2f2f2 | 
[V:3] z8 | 
[V:4] z8 | 
[V:1] c2c2G4 | 
[V:2] c4e4 | 
[V:3] G4c4- | 
[V:4] C,4C,4- | 
[V:1] z2e4d2 | 
[V:2] e2e2e2f2- | 
[V:3] c2c2c2B2 | 
[V:4] C,2C,2C,2D,2 | 
[V:1] c2B2A2A2 | 
[V:2] f2e4d2 | 
[V:3] c2G2A4 | 
[V:4] E,4F,4 | 
[V:1] G4A4 | 
[V:2] e8- | 
[V:3] B4c4 | 
[V:4] E,4A,,4 | 
[V:1] G8 ||  
[V:2] e8 ||  
[V:3] B8 ||  
[V:4] E,8 ||  
[V:1] [M:2/1]E6E2 | 
[V:2] [M:2/1]z8 | 
[V:3] [M:2/1]z8 | 
[V:4] [M:2/1]z8 | 
[V:1] F4D4 | 
[V:2] z8 | 
[V:3] z8 | 
[V:4] z8 | 
[V:1] G3AB2c2- | 
[V:2] e6e2 | 
[V:3] z8 | 
[V:4] z8 | 
[V:1] c2A4B2- | 
[V:2] f4d4 | 
[V:3] z8 | 
[V:4] z8 | 
[V:1] B2G2G4 | 
[V:2] e6c2 | 
[V:3] z8 | 
[V:4] z8 | 
[V:1] z2c2c2c2 | 
[V:2] c3de2f2- | 
[V:3] z8 | 
[V:4] z8 | 
[V:1] A2A2d3c | 
[V:2] f2d4g2- | 
[V:3] z8 | 
[V:4] z8 | 
[V:1] BAc4BA | 
[V:2] gfe4dc | 
[V:3] z4E4- | 
[V:4] z8 | 
[V:1] G4A4- | 
[V:2] B4A4- | 
[V:3] E2E2F4 | 
[V:4] z8 | 
[V:1] A4z4 | 
[V:2] A4z4 | 
[V:3] D4G3A | 
[V:4] z4E,4- | 
[V:1] z8 | 
[V:2] z8 | 
[V:3] B2c4A2- | 
[V:4] E,2E,2F,4 | 
[V:1] z8 | 
[V:2] z8 | 
[V:3] A2B4G2 | 
[V:4] D,4E,4- | 
[V:1] z8 | 
[V:2] z8 | 
[V:3] G4z2c2 | 
[V:4] E,2C,2C,3D, | 
[V:1] z8 | 
[V:2] z8 | 
[V:3] c2c2A2A2 | 
[V:4] E,2F,4D,2 | 
[V:1] z8 | 
[V:2] z8 | 
[V:3] d3cBAc2- | 
[V:4] D,2G,3F,E,D, | 
[V:1] z8 | 
[V:2] z2d2d2d2 | 
[V:3] cBA4^G2 | 
[V:4] C,2D,2B,,4 | 
[V:1] A4A2A2 | 
[V:2] c4f4 | 
[V:3] A4z4 | 
[V:4] A,,4z4 | 
[V:1] G2c2B2G2 | 
[V:2] e2c2d2e2 | 
[V:3] z8 | 
[V:4] z8 | 
[V:1] A2B2c3B | 
[V:2] f2edcBAB | 
[V:3] z8 | 
[V:4] z8 | 
[V:1] A2G2F4 | 
[V:2] cde4d2 | 
[V:3] z8 | 
[V:4] z8 | 
[V:1] E2c4B2 | 
[V:2] e6g2- | 
[V:3] z4z2e2- | 
[V:4] z2A,4G,2 | 
[V:1] G2B4A2 | 
[V:2] g2g2d2f2- | 
[V:3] e2d2B2d2- | 
[V:4] E,2G,4F,2 | 
[V:1] F2A4G2 | 
[V:2] f2f2c2e2 | 
[V:3] d2c2A2c2- | 
[V:4] D,2F,4E,2 | 
[V:1] E3FG2A2- | 
[V:2] g3fedf2- | 
[V:3] c2B2GABc | 
[V:4] C,2G,4F,2 | 
[V:1] AGG4^F2 | 
[V:2] fec2d4 | 
[V:3] d2G2A4 | 
[V:4] D,2E,2D,4 | 
[V:1] G8 | 
[V:2] B8 | 
[V:3] G4z2B2- | 
[V:4] z2E,4E,2 | 
[V:1] z8 | 
[V:2] z8 | 
[V:3] B2B2B2B2 | 
[V:4] E,2E,2G,4- | 
[V:1] z8 | 
[V:2] z8 | 
[V:3] d6cB | 
[V:4] G,2F,E,D,4 | 
[V:1] z8 | 
[V:2] z8 | 
[V:3] A4z2e2- | 
[V:4] z2A,4G,2 | 
[V:1] z8 | 
[V:2] z8 | 
[V:3] e2d2e2c2 | 
[V:4] A,2F,2E,4 | 
[V:1] z8 | 
[V:2] z8 | 
[V:3] B4z2B2 | 
[V:4] z2E,2F,2E,2 | 
[V:1] z8 | 
[V:2] z4z2e2- | 
[V:3] c2B2G3A | 
[V:4] C,2D,2E,4- | 
[V:1] z2B4B2 | 
[V:2] e2e2e2e2 | 
[V:3] B4z4 | 
[V:4] E,4z4 | 
[V:1] B2B2d4- | 
[V:2] g6fe | 
[V:3] z8 | 
[V:4] z8 | 
[V:1] d2cBA4 | 
[V:2] d4z2a2- | 
[V:3] z8 | 
[V:4] z8 | 
[V:1] z2e4d2 | 
[V:2] a2g2a2f2 | 
[V:3] z8 | 
[V:4] z8 | 
[V:1] e2c2B4 | 
[V:2] e4z2e2 | 
[V:3] z8 | 
[V:4] z8 | 
[V:1] z2B2c2B2 | 
[V:2] f2e2c2d2 | 
[V:3] z8 | 
[V:4] z8 | 
[V:1] G2A4G2- | 
[V:2] e2A2B2c2 | 
[V:3] z8 | 
[V:4] z8 | 
[V:1] G2^F2G4 | 
[V:2] A4G4 | 
[V:3] d4c2B2- | 
[V:4] D,4E,2G,2 | 
[V:1] D4E2E2 | 
[V:2] z4G4 | 
[V:3] B2A2B2c2- | 
[V:4] G,2F,2E,4 | 
[V:1] F2F2E4 | 
[V:2] A4G4 | 
[V:3] c2d2B2c2- | 
[V:4] z2D,2E,4 | 
[V:1] z2D2E4 | 
[V:2] A2A2G4 | 
[V:3] c2A2B2c2- | 
[V:4] F,2F,2E,4 | 
[V:1] F2F2E4 | 
[V:2] A2F2G2G2 | 
[V:3] c2d2B2c2- | 
[V:4] z2D,2E,4 | 
[V:1] z2A4G2 | 
[V:2] ABcde4 | 
[V:3] c2BAB4 | 
[V:4] F,4E,4 | 
[V:1] A2c4BA | 
[V:2] e8 | 
[V:3] A8 | 
[V:4] A,,8 | 
[V:1] G4A4 | 
[V:2] e4d4- | 
[V:3] B4A4- | 
[V:4] E,4F,4- | 
[V:1] z8 | 
[V:2] d2c2B2A2- | 
[V:3] A2G2F2E2- | 
[V:4] F,2E,2D,2C,2 | 
[V:1] B4c4- | 
[V:2] A2^G2A3B | 
[V:3] E2D2E2F2- | 
[V:4] B,,4A,,2A,2- | 
[V:1] c2B2A2G2 | 
[V:2] cAd4c2- | 
[V:3] F2G2D2G2 | 
[V:4] A,2G,2F,2E,2 | 
[V:1] F4E2e2- | 
[V:2] c2B2c3d | 
[V:3] A2F2G2C2- | 
[V:4] D,4C,2C2- | 
[V:1] e2d2c2B2 | 
[V:2] ecdefee2- | 
[V:3] C2G2A2B2 | 
[V:4] C2B,2A,2G,2 | 
[V:1] A4G4- | 
[V:2] e2d2e4- | 
[V:3] c2A2B4- | 
[V:4] F,4E,4- | 
[V:1] G8- | 
[V:2] e8- | 
[V:3] B2G2c3B | 
[V:4] E,4C,3D, | 
[V:1] G8 |]  
[V:2] e8 |]  
[V:3] B8 |]  
[V:4] E,8 |]  



